X: 1
T: Your Mother's Little Pet
M: 4/4
L: 1/8
R: reel
K: Dmaj
d2cA BG~G2|ABcA dfaf|d2cA BGGB|ABcA d2de:|
|:fdde fga2|bgaf gbag|fdde fga2|1 bgaf g2ag:|2 bgaf g2af||
